X:1
T:Title
%%score { 1 | 2 }
L:1/8
Q:1/4=100
M:3/4
K:Db
V:1 treble nm="Grand Piano"
V:2 bass 
V:1
 F2 F2 [EG]2 | [FA]4 [GB][Ac] | [Bd]2 [Ac]2 [GB]2 | [GB]2 [FA]2 z2 | [DFA]2 [EG]2 [DF]2 | %5
w: G.~F.~Root * *|||||
 [CE]2 [DF]2 [EG]2 | [GB]2 [FA]2 [EG]2 | F4 z2 | F2 F2 [EG]2 | [FA]4 [GB][Ac] | [Bd]2 [Ac]2 [GB]2 | %11
w: ||||||
 [GB]2 [FA]2 z2 | [Ad]2 [Ad]2 [Ad]2 | e4 dB | A2 B2 c2 | [Fd]4 z2 |] %16
w: |||||
V:2
 [D,A,D]2 [D,D]2 [D,D]2 | [D,D]4 [D,D][D,D] | [D,D]2 [D,D]2 [D,D]2 | [D,D]2 [D,D]2 z2 | %4
 A,,2 [A,,A,]2 [A,,A,]2 | [A,,A,]2 [A,,A,]2 [A,,A,]2 | [A,,A,]2 [A,,A,]2 [A,,A,]2 | [D,A,D]4 z2 | %8
 [D,A,D]2 [D,D]2 [D,D]2 | [D,D]4 [D,D][D,D] | [D,D]2 [D,D]2 [D,D]2 | [D,D]2 [D,D]2 z2 | %12
 [F,D]2 [F,D]2 [F,D]2 | [G,B,G]4 [G,B,G][K:treble][G,DG] | [A,CE]2 [A,DF]2 [A,EG]2 | [D,D]4 z2 |] %16

